X: 1409
T: An Táilliúir Aerach
R: reel
M: 4/4
K: Gminor
B2F2G EE2|F2{FF}F2A2B2|B2F2 G E FD|E2{EE}D2E2E2|
B2F2G EE2|F2{FF}F2A2B2{BB}|B{B} BF2 GE F D|E2D2E2E2||
F2F2G2FE|F2F2d2cd|e2d2c2BA|F2F2A2B2{BB}|
F2F2G2FE|F2F2d2cd|e2d2{dd}c2BA|F2F2A2Bc||

